Adwaita++/status/16/touchpad-disabled.svg

<svg height="16" width="16" xmlns="http://www.w3.org/2000/svg">
  <g fill="#474747">
    <path d="m3.477 1 2 2h6.492c.596 0 1.031.435 1.031 1.031v5.969h-.523l2.472 2.473c.028-.165.051-.332.051-.504v-7.939a3.038 3.038 0 0 0 -3.031-3.03zm-3.188 1.762c-.179.387-.289.815-.289 1.27v7.937a3.038 3.038 0 0 0 3.031 3.031h8.938c.173 0 .34-.025.506-.053l-1.948-1.947h-2.527v-2h.527l-1-1h-5.527v-5.527zm1.711 8.238h5v2h-3.969c-.596 0-1.031-.435-1.031-1.031z" opacity=".35"/>
    <path d="m1.531.469-1.061 1.061 14 14 1.062-1.062z"/>
  </g>
</svg>

<svg xmlns="http://www.w3.org/2000/svg" width="16" height="16">
    <g fill="#474747">
        <path d="M3.477 1l2 2h6.492C12.565 3 13 3.435 13 4.031V10h-.523l2.472 2.473c.028-.165.051-.332.051-.504V4.03A3.038 3.038 0 0 0 11.969 1zM.289 2.762C.11 3.149 0 3.577 0 4.032v7.937A3.038 3.038 0 0 0 3.031 15h8.938c.173 0 .34-.025.506-.053L10.527 13H8v-2h.527l-1-1H2V4.473zM2 11h5v2H3.031C2.435 13 2 12.565 2 11.969z" style="line-height:normal;-inkscape-font-specification:Sans;text-indent:0;text-align:start;text-decoration-line:none;text-transform:none;marker:none" color="#bebebe" font-weight="400" font-family="Sans" overflow="visible" opacity=".35"/>
        <path d="M1.531.469L.47 1.53l14 14 1.062-1.062z"/>
    </g>
</svg>
